X: 1
T: Humours Of Bolton Street, The
M: 4/4
L: 1/8
R: reel
K: Edor
~B3A FAAF | EBBA Beef | dBAF DEFA | BdAF FEE2 :|
Eeef defd | ~B3c defe | dBAF DEFA |1BdAF FEE2 :|2 BdAF Edcd||
